24x24/apps/qutim.svg

<svg xmlns="http://www.w3.org/2000/svg" width="24" height="24" version="1.1">
 <rect style="opacity:0.2" width="15.68" height="15.68" x="-24.18" y="-13.6" rx="1.176" ry="1.176" transform="matrix(-0.41352317,-0.9104936,-0.9104936,0.41352317,0,0)"/>
 <rect style="fill:#4f4f4f" width="15.68" height="15.68" x="-23.73" y="-13.8" rx="1.176" ry="1.176" transform="matrix(-0.41352317,-0.9104936,-0.9104936,0.41352317,0,0)"/>
 <path style="opacity:0.1;fill:#f4f4f7" d="m 15.28125,2 c -0.152728,0.00418 -0.30776,0.039093 -0.456055,0.1064453 L 2.6904296,7.6171873 C 2.1720186,7.8526363 1.9078869,8.4128783 2.0292969,8.9462888 2.1037,8.5933098 2.3353496,8.2784558 2.6904296,8.1171873 L 14.825195,2.6064452 c 0.593179,-0.269407 1.28821,-0.0092 1.557617,0.5839844 l 5.510742,12.1347654 c 0.03396,0.07477 0.05964,0.151584 0.07715,0.228516 0.04989,-0.236691 0.03099,-0.490417 -0.07715,-0.728516 L 16.382812,2.6904296 C 16.180757,2.2455451 15.739434,1.9874582 15.28125,2 Z"/>
 <path style="opacity:0.2" d="M 11.99732,7.8290857 C 12.01516,8.2684941 11.578726,8.5942253 11.367973,8.5780003 11.165016,8.5623753 10.885745,8.2223591 10.981,7.7331092 11.202546,6.5893872 10.514044,5.9250397 9.7609183,5.5116017 11.292634,7.4532832 9.5092443,7.4582052 8.8006831,9.9529831 8.6550245,10.463673 8.5256069,10.984005 8.5215397,11.480951 c -0.0027,0.326234 0.048684,0.642391 0.1849234,0.939124 0.099313,0.214102 0.3554031,0.47127 0.3305743,0.728438 -0.024827,0.269473 -0.2164115,0.475577 -0.3354603,0.711212 -0.1839834,0.360528 -0.527124,0.684757 -0.6811863,1.004679 -0.087218,0.177803 0.1241412,0.312539 0.2788402,0.396826 0.2336414,0.129815 0.5519527,0.17042 0.6888272,0.410977 0.09422,0.166114 0.069392,0.341456 -0.012735,0.502032 -0.074485,0.151348 -0.129235,0.377139 0.024827,0.478038 0.1145926,0.07444 0.2635625,0.113203 0.3431401,0.243018 0.074484,0.122431 0.040107,0.269472 0.1591562,0.365449 0.199263,0.158731 0.5271235,0.143965 0.6786405,0.478038 0.06939,0.153808 0.117138,0.326689 0.208812,0.478037 0.141966,0.233174 0.53731,0.302696 0.810421,0.278702 0.293484,-0.02892 0.509936,-0.11751 0.790687,-0.199336 0.728934,-0.218409 1.41776,-0.506954 2.069025,-0.903781 0.54686,-0.338994 0.88045,-0.530947 1.372561,-0.809649 0.360329,-0.196875 0.87281,-0.132275 1.2707,-0.230713 0.49211,-0.122432 1.08417,-0.315 1.432402,-0.649073 0.367969,-0.350684 0.519485,-0.629385 0.631531,-1.275997 -0.159155,0.211641 -0.369299,0.896584 -0.776738,1.026399 -0.447546,0.141504 -0.683904,0.06706 -0.820778,-0.110742 -0.114592,-0.151348 -0.144512,-0.552669 -0.13942,-0.740315 0.266109,-0.845948 1.28939,-0.492804 2.057794,-0.785655 1.402482,-0.530948 1.723339,-1.539813 1.817559,-2.48666 0.04201,-0.516798 0.112047,-0.765022 1.014779,-1.8059987 C 20.791688,9.9928093 20.32377,10.120327 20.062755,10.670962 19.818928,11.187759 18.596187,11.842953 18.134,11.336 17.547032,10.689388 19.312175,9.7745651 20.271567,9.5438521 21.037425,9.3586661 21.76307,8.6185386 21.922226,7.9048657 22.175519,6.2743207 21.547945,5.2397982 21.481485,4.2037236 21.446885,3.6643493 21.685925,3.1245544 22,2.5000269 19.269522,4.5622945 21.587467,5.6844827 19.843755,7.3813007 18.846804,8.3447586 17.702297,7.8328832 18.09,7.0090837 18.345923,6.4781362 19.057527,6.7999037 19.261882,5.5718947 18.842709,6.1571265 17.778776,5.9818221 17.04285,6.3120721 16.283121,6.6530035 15.786145,7.8663573 15.168295,7.2678568 14.915463,6.9239988 14.902352,6.7167722 16.031705,6.1299127 16.907063,5.6734087 18.570701,5.8222952 19.08,2.5781617 18.055673,4.4983101 16.195904,4.1931535 14.173988,5.0224898 13.124833,5.4500783 11.944477,6.5973852 11.99668,7.8303162"/>
 <path style="fill:#1684ce" d="M 11.99732,7.3290854 C 12.01516,7.7684938 11.578726,8.094225 11.367973,8.078 11.165016,8.062375 10.885745,7.7223588 10.981,7.2331089 11.202546,6.0893869 10.514044,5.4250394 9.7609183,5.0116014 11.292634,6.9532829 9.5092443,6.9582049 8.8006831,9.4529828 8.6550245,9.9636733 8.5256069,10.484005 8.5215397,10.980951 c -0.0027,0.326234 0.048684,0.642391 0.1849234,0.939124 0.099313,0.214102 0.3554031,0.47127 0.3305743,0.728438 -0.024827,0.269473 -0.2164115,0.475577 -0.3354603,0.711212 -0.1839834,0.360528 -0.527124,0.684757 -0.6811863,1.004679 -0.087218,0.177803 0.1241412,0.312539 0.2788402,0.396826 0.2336414,0.129815 0.5519527,0.17042 0.6888272,0.410977 0.09422,0.166114 0.069392,0.341456 -0.012735,0.502032 -0.074485,0.151348 -0.129235,0.377139 0.024827,0.478038 0.1145926,0.07444 0.2635625,0.113203 0.3431401,0.243018 0.074484,0.122431 0.040107,0.269472 0.1591562,0.365449 0.199263,0.158731 0.5271235,0.143965 0.6786405,0.478038 0.06939,0.153808 0.117138,0.326689 0.208812,0.478037 0.141966,0.233174 0.53731,0.302696 0.810421,0.278702 0.293484,-0.02892 0.509936,-0.11751 0.790687,-0.199336 0.728934,-0.218409 1.41776,-0.506954 2.069025,-0.903781 0.54686,-0.338994 0.88045,-0.530947 1.372561,-0.809649 0.360329,-0.196875 0.87281,-0.132275 1.2707,-0.230713 0.49211,-0.122432 1.08417,-0.315 1.432402,-0.649073 0.367969,-0.350684 0.519485,-0.629385 0.631531,-1.275997 -0.159155,0.211641 -0.369299,0.896584 -0.776738,1.026399 -0.447546,0.141504 -0.683904,0.06706 -0.820778,-0.110742 -0.114592,-0.151348 -0.144512,-0.552669 -0.13942,-0.740315 0.266109,-0.845948 1.28939,-0.492804 2.057794,-0.785655 1.402482,-0.530948 1.723339,-1.539813 1.817559,-2.48666 C 20.947653,10.313201 21.01769,10.064977 21.920422,9.024 20.791688,9.492809 20.32377,9.6203268 20.062755,10.170962 19.818928,10.687759 18.596187,11.342953 18.134,10.836 17.547032,10.189388 19.312175,9.2745648 20.271567,9.0438518 21.037425,8.8586658 21.76307,8.1185383 21.922226,7.4048654 22.175519,5.7743204 21.547945,4.7397979 21.481485,3.7037233 21.446885,3.164349 21.685925,2.6245541 22,2.0000266 19.269522,4.0622942 21.587467,5.1844824 19.843755,6.8813004 18.846804,7.8447583 17.702297,7.3328829 18.09,6.5090834 18.345923,5.9781359 19.057527,6.2999034 19.261882,5.0718944 18.842709,5.6571262 17.778776,5.4818218 17.04285,5.8120718 16.283121,6.1530032 15.786145,7.366357 15.168295,6.7678565 14.915463,6.4239985 14.902352,6.2167719 16.031705,5.6299124 16.907063,5.1734084 18.570701,5.3222949 19.08,2.0781614 18.055673,3.9983098 16.195904,3.6931532 14.173988,4.5224895 13.124833,4.950078 11.944477,6.0973849 11.99668,7.3303159"/>
 <path style="fill:#f4f4f7;opacity:0.2" d="M 22 2 C 20.463508 3.1604772 20.525092 4.0224013 20.5625 4.8574219 C 20.573821 4.2423603 20.735572 3.587562 21.652344 2.7890625 C 21.744936 2.5368749 21.859996 2.2783935 22 2 z M 19.080078 2.078125 C 18.055751 3.9982734 16.195744 3.6941012 14.173828 4.5234375 C 13.124673 4.951026 11.943891 6.0971471 11.996094 7.3300781 L 11.998047 7.328125 C 12.015887 7.7675334 11.577941 8.09435 11.367188 8.078125 C 11.225811 8.0672409 11.055238 7.8914889 10.992188 7.625 C 10.986821 7.6617765 10.987794 7.6946054 10.980469 7.7324219 C 10.885214 8.2216718 11.164231 8.5625 11.367188 8.578125 C 11.577941 8.59435 12.015887 8.2675334 11.998047 7.828125 L 11.996094 7.8300781 C 11.943891 6.5971471 13.124673 5.451026 14.173828 5.0234375 C 16.092756 4.2363442 17.856936 4.4474993 18.908203 2.8320312 C 18.970047 2.5952166 19.034984 2.3653633 19.080078 2.078125 z M 21.501953 3.8242188 C 21.482786 3.9510918 21.474355 4.0773663 21.482422 4.203125 C 21.534056 5.0080673 21.917904 5.8170928 21.970703 6.9003906 C 22.039043 5.6122055 21.593691 4.7093784 21.501953 3.8242188 z M 9.7617188 5.0117188 C 10.019912 5.339018 10.157219 5.5994522 10.248047 5.8378906 C 10.627431 6.1377817 10.923389 6.5294746 10.998047 7.0566406 C 11.116889 6.0231326 10.474135 5.4028088 9.7617188 5.0117188 z M 19.261719 5.0722656 C 18.842546 5.6574974 17.778895 5.48225 17.042969 5.8125 C 16.28324 6.1534314 15.785819 7.3660786 15.167969 6.7675781 C 15.157668 6.7535691 15.155928 6.742106 15.146484 6.7285156 C 14.986464 6.9226678 15.028026 7.0772524 15.167969 7.2675781 C 15.785819 7.8660786 16.28324 6.6534314 17.042969 6.3125 C 17.640161 6.0445073 18.447665 6.1029475 18.957031 5.8242188 C 19.087246 5.6698373 19.199083 5.4486548 19.261719 5.0722656 z M 20.560547 5.3027344 C 20.547064 5.802608 20.432101 6.3083309 19.84375 6.8808594 C 19.107437 7.5924353 18.29478 7.4976031 18.074219 7.0683594 C 17.770517 7.8553569 18.87192 8.3200399 19.84375 7.3808594 C 20.627657 6.6180346 20.590676 5.9709122 20.560547 5.3027344 z M 10.320312 6.5625 C 10.136014 7.2789788 9.2538512 7.8579078 8.8007812 9.453125 C 8.6551226 9.9638155 8.5255516 10.483523 8.5214844 10.980469 C 8.5206834 11.077252 8.5353993 11.17086 8.5449219 11.265625 C 8.5770205 10.83397 8.6757602 10.391458 8.8007812 9.953125 C 9.3513679 8.0145607 10.531448 7.5711954 10.320312 6.5625 z M 21.919922 9.0234375 C 20.791188 9.4922465 20.323515 9.6212398 20.0625 10.171875 C 19.818673 10.688672 18.596953 11.342891 18.134766 10.835938 C 18.120091 10.819772 18.123112 10.801642 18.111328 10.785156 C 17.9958 10.976154 17.979462 11.164853 18.134766 11.335938 C 18.596953 11.84289 19.818673 11.188672 20.0625 10.671875 C 20.260098 10.255023 20.678857 10.050628 21.310547 9.7871094 C 21.45471 9.5837306 21.636517 9.3502429 21.919922 9.0234375 z M 8.9707031 12.878906 C 8.8982146 13.045244 8.7838751 13.195679 8.7011719 13.359375 C 8.5171885 13.719903 8.1735935 14.045312 8.0195312 14.365234 C 7.9590523 14.488527 8.0499933 14.580741 8.1582031 14.660156 C 8.3305157 14.40488 8.5558284 14.144185 8.7011719 13.859375 C 8.8202207 13.62374 9.0122824 13.41791 9.0371094 13.148438 C 9.0458918 13.057472 9.0128453 12.967965 8.9707031 12.878906 z M 18.767578 13.927734 C 18.608423 14.139375 18.397673 14.82331 17.990234 14.953125 C 17.542688 15.094629 17.306796 15.019599 17.169922 14.841797 C 17.119255 14.774878 17.090213 14.651924 17.068359 14.527344 C 17.057185 14.554184 17.040599 14.571842 17.03125 14.601562 C 17.026158 14.789209 17.05533 15.190449 17.169922 15.341797 C 17.26562 15.46611 17.415346 15.536702 17.646484 15.521484 C 17.830292 15.431507 18.002483 15.330029 18.134766 15.203125 C 18.502735 14.852441 18.655532 14.574346 18.767578 13.927734 z M 8.9785156 15.660156 C 8.9763438 15.664597 8.9768693 15.669409 8.9746094 15.673828 C 8.9034454 15.818428 8.856566 16.028104 8.9863281 16.134766 C 9.0532885 15.984854 9.0750651 15.824879 8.9882812 15.671875 C 8.9856437 15.667239 8.9812861 15.664645 8.9785156 15.660156 z"/>
</svg>

<svg xmlns="http://www.w3.org/2000/svg" width="24" height="24"><rect style="opacity:.2" width="15.68" height="15.68" x="-24.18" y="-13.6" rx="1.176" ry="1.176" transform="scale(-1 1) rotate(-65.574)"/><rect style="fill:#4f4f4f" width="15.68" height="15.68" x="-23.73" y="-13.8" rx="1.176" ry="1.176" transform="scale(-1 1) rotate(-65.574)"/><path style="opacity:.1;fill:#f4f4f7" d="M15.281 2a1.18 1.18 0 0 0-.456.106L2.69 7.617a1.173 1.173 0 0 0-.66 1.33c.074-.354.305-.669.66-.83l12.135-5.51a1.174 1.174 0 0 1 1.558.583l5.51 12.135c.035.075.06.152.078.229.05-.237.03-.49-.077-.729L16.383 2.69A1.174 1.174 0 0 0 15.28 2z"/><path style="opacity:.2" d="M11.997 7.83c.018.438-.418.764-.629.748-.203-.016-.482-.356-.387-.845.222-1.144-.467-1.808-1.22-2.221 1.532 1.941-.252 1.946-.96 4.441-.146.51-.275 1.031-.28 1.528-.002.326.05.642.185.94.1.213.356.47.331.728-.025.269-.216.475-.335.71-.184.361-.528.685-.682 1.005-.087.178.125.313.28.397.233.13.551.17.688.411.094.166.07.342-.013.502-.074.152-.129.377.025.478.115.075.264.113.343.243.075.123.04.27.16.366.199.158.527.144.678.478.07.154.117.326.209.478.142.233.537.303.81.279.294-.03.51-.118.791-.2a8.769 8.769 0 0 0 2.069-.904c.547-.339.88-.53 1.373-.81.36-.196.872-.132 1.27-.23.492-.122 1.084-.315 1.433-.649.368-.35.52-.63.631-1.276-.159.212-.37.897-.777 1.026-.447.142-.683.067-.82-.11-.115-.152-.145-.553-.14-.74.266-.847 1.29-.493 2.058-.786 1.403-.531 1.723-1.54 1.818-2.487.042-.517.112-.765 1.014-1.806-1.128.469-1.596.596-1.857 1.147-.244.517-1.467 1.172-1.929.665-.587-.647 1.178-1.561 2.138-1.792.765-.185 1.491-.925 1.65-1.64.254-1.63-.374-2.664-.44-3.7-.035-.54.204-1.08.518-1.704-2.73 2.062-.413 3.184-2.156 4.881-.997.964-2.142.452-1.754-.372.256-.53.968-.21 1.172-1.437-.42.585-1.483.41-2.22.74-.759.341-1.256 1.554-1.874.956-.253-.344-.266-.551.864-1.138.875-.457 2.539-.308 3.048-3.552-1.024 1.92-2.884 1.615-4.906 2.444-1.05.428-2.23 1.575-2.177 2.808"/><path style="fill:#1684ce" d="M11.997 7.33c.018.438-.418.764-.629.748-.203-.016-.482-.356-.387-.845.222-1.144-.467-1.808-1.22-2.221 1.532 1.941-.252 1.946-.96 4.441-.146.51-.275 1.031-.28 1.528-.002.326.05.642.185.94.1.213.356.47.331.728-.025.269-.216.475-.335.71-.184.361-.528.685-.682 1.005-.087.178.125.313.28.397.233.13.551.17.688.411.094.166.07.342-.013.502-.074.152-.129.377.025.478.115.075.264.113.343.243.075.123.04.27.16.366.199.158.527.144.678.478.07.154.117.326.209.478.142.233.537.303.81.279.294-.03.51-.118.791-.2a8.769 8.769 0 0 0 2.069-.904c.547-.339.88-.53 1.373-.81.36-.196.872-.132 1.27-.23.492-.122 1.084-.315 1.433-.649.368-.35.52-.63.631-1.276-.159.212-.37.897-.777 1.026-.447.142-.683.067-.82-.11-.115-.152-.145-.553-.14-.74.266-.847 1.29-.493 2.058-.786 1.403-.531 1.723-1.54 1.818-2.487.042-.517.112-.765 1.014-1.806-1.128.469-1.596.596-1.857 1.147-.244.517-1.467 1.172-1.929.665-.587-.647 1.178-1.561 2.138-1.792.765-.185 1.491-.925 1.65-1.64.254-1.63-.374-2.664-.44-3.7-.035-.54.204-1.08.518-1.704-2.73 2.062-.413 3.184-2.156 4.881-.997.964-2.142.452-1.754-.372.256-.53.968-.21 1.172-1.437-.42.585-1.483.41-2.22.74-.759.341-1.256 1.554-1.874.956-.253-.344-.266-.551.864-1.138.875-.457 2.539-.308 3.048-3.552-1.024 1.92-2.884 1.615-4.906 2.444-1.05.428-2.23 1.575-2.177 2.808"/><path style="fill:#f4f4f7;opacity:.2" d="M22 2c-1.536 1.16-1.475 2.022-1.438 2.857.012-.615.174-1.27 1.09-2.068.093-.252.208-.51.348-.789zm-2.92.078c-1.024 1.92-2.884 1.616-4.906 2.445-1.05.428-2.23 1.574-2.178 2.807l.002-.002c.018.44-.42.766-.63.75-.142-.01-.313-.187-.376-.453-.005.037-.004.07-.012.107-.095.49.184.83.387.846.21.016.649-.31.631-.75l-.002.002c-.052-1.233 1.129-2.379 2.178-2.807 1.919-.787 3.683-.576 4.734-2.191.062-.237.127-.467.172-.754zm2.422 1.746c-.02.127-.028.253-.02.38.052.804.436 1.613.489 2.696.068-1.288-.377-2.19-.469-3.076zM9.762 5.012c.258.327.395.587.486.826.38.3.675.691.75 1.219.119-1.034-.524-1.654-1.236-2.045zm9.5.06c-.42.585-1.483.41-2.219.74-.76.341-1.257 1.554-1.875.956-.01-.014-.012-.026-.022-.04-.16.195-.118.35.022.54.618.598 1.115-.615 1.875-.955.597-.268 1.405-.21 1.914-.489.13-.154.242-.375.305-.752zm1.299.23c-.014.5-.129 1.006-.717 1.579-.737.711-1.55.617-1.77.187-.303.787.798 1.252 1.77.313.784-.763.747-1.41.717-2.078zm-10.24 1.26c-.185.717-1.067 1.296-1.52 2.891-.146.51-.275 1.03-.28 1.527 0 .097.014.19.024.286.032-.432.13-.875.256-1.313.55-1.938 1.73-2.382 1.52-3.39zM21.92 9.024c-1.129.47-1.596.598-1.858 1.149-.243.517-1.465 1.17-1.927.664-.015-.016-.012-.034-.024-.05-.115.19-.132.379.024.55.462.507 1.684-.147 1.927-.664.198-.417.617-.621 1.249-.885.144-.203.326-.437.609-.764zM8.97 12.88c-.072.166-.186.317-.269.48-.184.36-.527.686-.681 1.006-.06.124.03.216.138.295.173-.255.398-.516.543-.8.12-.236.311-.442.336-.712a.524.524 0 0 0-.066-.27zm9.798 1.049c-.16.211-.37.895-.778 1.025-.447.142-.683.067-.82-.111-.05-.067-.08-.19-.102-.315-.01.027-.027.045-.037.075-.005.187.024.588.139.74.096.124.245.195.476.18.184-.09.356-.192.489-.319.368-.35.52-.629.633-1.275zm-9.79 1.732c-.002.005-.001.01-.003.014-.072.144-.118.354.011.46.067-.15.09-.31.002-.462-.002-.005-.007-.007-.01-.012z"/></svg>
